dist/img/selection/xlsx_icon.svg

<svg width="50" height="50" viewBox="0 0 50 50" fill="none" xmlns="http://www.w3.org/2000/svg">
<rect width="50" height="50" rx="3" fill="#217346"/>
<path d="M12.0391 26.0391L9.22656 21.7656H11.9297L13.625 24.5469L15.3359 21.7656H18.0391L15.1953 26.0391L18.1719 30.5H15.4609L13.625 27.5078L11.7812 30.5H9.07812L12.0391 26.0391ZM21.8828 30.5H19.5V18.3438H21.8828V30.5ZM30.4844 27.9062C30.4844 28.5 30.3438 29.0026 30.0625 29.4141C29.7865 29.8203 29.3724 30.1302 28.8203 30.3438C28.2682 30.5521 27.5807 30.6562 26.7578 30.6562C26.1484 30.6562 25.625 30.6172 25.1875 30.5391C24.7552 30.4609 24.3177 30.3307 23.875 30.1484V28.1797C24.349 28.3932 24.8568 28.5703 25.3984 28.7109C25.9453 28.8464 26.4245 28.9141 26.8359 28.9141C27.2995 28.9141 27.6302 28.8464 27.8281 28.7109C28.0312 28.5703 28.1328 28.388 28.1328 28.1641C28.1328 28.0182 28.0911 27.888 28.0078 27.7734C27.9297 27.6536 27.7578 27.5208 27.4922 27.375C27.2266 27.224 26.8099 27.0286 26.2422 26.7891C25.6953 26.5599 25.2448 26.3281 24.8906 26.0938C24.5417 25.8594 24.2812 25.5833 24.1094 25.2656C23.9427 24.9427 23.8594 24.5339 23.8594 24.0391C23.8594 23.2318 24.1719 22.625 24.7969 22.2188C25.4271 21.8073 26.2682 21.6016 27.3203 21.6016C27.862 21.6016 28.3776 21.6562 28.8672 21.7656C29.362 21.875 29.8698 22.0495 30.3906 22.2891L29.6719 24.0078C29.2396 23.8203 28.8307 23.6667 28.4453 23.5469C28.0651 23.4271 27.6771 23.3672 27.2812 23.3672C26.9323 23.3672 26.6693 23.4141 26.4922 23.5078C26.3151 23.6016 26.2266 23.7448 26.2266 23.9375C26.2266 24.0781 26.2708 24.2031 26.3594 24.3125C26.4531 24.4219 26.6302 24.5443 26.8906 24.6797C27.1562 24.8099 27.5443 24.9792 28.0547 25.1875C28.5495 25.3906 28.9792 25.6042 29.3438 25.8281C29.7083 26.0469 29.9896 26.3203 30.1875 26.6484C30.3854 26.9714 30.4844 27.3906 30.4844 27.9062ZM34.1328 26.0391L31.3203 21.7656H34.0234L35.7188 24.5469L37.4297 21.7656H40.1328L37.2891 26.0391L40.2656 30.5H37.5547L35.7188 27.5078L33.875 30.5H31.1719L34.1328 26.0391Z" fill="white"/>
</svg>

<svg width="50" height="50" viewBox="0 0 50 50" fill="none" xmlns="http://www.w3.org/2000/svg"><rect width="50" height="50" rx="3" fill="#217346"/><path d="M12.04 26.04l-2.813-4.274h2.703l1.695 2.78 1.71-2.78h2.704l-2.844 4.273 2.977 4.461H15.46l-1.836-2.992L11.78 30.5H9.078l2.961-4.46zm9.843 4.46H19.5V18.344h2.383V30.5zm8.601-2.594c0 .594-.14 1.097-.422 1.508-.276.406-.69.716-1.242.93-.552.208-1.24.312-2.062.312-.61 0-1.133-.039-1.57-.117a6.472 6.472 0 01-1.313-.39v-1.97c.474.214.982.391 1.523.532.547.135 1.026.203 1.438.203.463 0 .794-.068.992-.203.203-.14.305-.323.305-.547a.648.648 0 00-.125-.39c-.078-.12-.25-.253-.516-.399a12.844 12.844 0 00-1.25-.586 8.268 8.268 0 01-1.351-.695 2.354 2.354 0 01-.782-.828c-.166-.323-.25-.732-.25-1.227 0-.807.313-1.414.938-1.82.63-.412 1.471-.617 2.523-.617.542 0 1.058.054 1.547.164a7.57 7.57 0 011.524.523l-.72 1.719a12.2 12.2 0 00-1.226-.461c-.38-.12-.768-.18-1.164-.18-.349 0-.612.047-.789.14a.458.458 0 00-.265.43.58.58 0 00.132.375c.094.11.271.232.532.368.265.13.653.3 1.164.508a9.05 9.05 0 011.289.64c.364.219.646.492.843.82.198.323.297.743.297 1.258zm3.649-1.867l-2.813-4.273h2.703l1.696 2.78 1.71-2.78h2.704l-2.844 4.273 2.977 4.461h-2.711l-1.836-2.992-1.844 2.992h-2.703l2.96-4.46z" fill="#fff"/></svg>
